ui_kit/lib/assets/icons/message_badge_off.svg

<svg width="24" height="24" viewBox="0 0 24 24" fill="none" xmlns="http://www.w3.org/2000/svg">
<path fill-rule="evenodd" clip-rule="evenodd" d="M6.4 5.6C6.18782 5.6 5.98434 5.68428 5.83431 5.83431C5.68428 5.98434 5.6 6.18782 5.6 6.4V17.2686L7.43431 15.4343C7.58434 15.2843 7.78782 15.2 7.99999 15.2H17.6C17.8122 15.2 18.0156 15.1157 18.1657 14.9657C18.3157 14.8156 18.4 14.6122 18.4 14.4V6.4C18.4 6.18782 18.3157 5.98434 18.1657 5.83431C18.0156 5.68428 17.8122 5.6 17.6 5.6H6.4ZM4.70294 4.70294C5.15303 4.25286 5.76348 4 6.4 4H17.6C18.2365 4 18.8469 4.25286 19.297 4.70294C19.7471 5.15303 20 5.76348 20 6.4V14.4C20 15.0365 19.7471 15.647 19.297 16.097C18.8469 16.5471 18.2365 16.8 17.6 16.8H8.33136L5.36568 19.7657C5.13689 19.9945 4.79279 20.0629 4.49385 19.9391C4.19491 19.8153 4 19.5235 4 19.2V6.4C4 5.76348 4.25286 5.15303 4.70294 4.70294Z" fill="white"/>
</svg>

<svg xmlns="http://www.w3.org/2000/svg" width="24" height="24" fill="none" viewBox="0 0 24 24"><path fill="#fff" fill-rule="evenodd" d="M6.4 5.6a.8.8 0 0 0-.8.8v10.869l1.834-1.835A.8.8 0 0 1 8 15.2h9.6a.8.8 0 0 0 .8-.8v-8a.8.8 0 0 0-.8-.8H6.4Zm-1.697-.897A2.4 2.4 0 0 1 6.4 4h11.2A2.4 2.4 0 0 1 20 6.4v8a2.4 2.4 0 0 1-2.4 2.4H8.331l-2.965 2.966A.8.8 0 0 1 4 19.2V6.4a2.4 2.4 0 0 1 .703-1.697Z" clip-rule="evenodd"/></svg>
